teeny/solid/d3.svg

<svg width="15" height="15" viewBox="0 0 15 15" fill="none" xmlns="http://www.w3.org/2000/svg">
<path fill-rule="evenodd" clip-rule="evenodd" d="M1.5 2H0V1H1.5C5.08985 1 8 3.91015 8 7.5C8 11.0899 5.08985 14 1.5 14H0V13H1.5C4.53757 13 7 10.5376 7 7.5C7 4.46243 4.53757 2 1.5 2ZM11.5 2H7V1H11.5C13.433 1 15 2.567 15 4.5C15 5.77316 14.3202 6.88755 13.3038 7.5C14.3202 8.11245 15 9.22684 15 10.5C15 12.433 13.433 14 11.5 14H7V13H11.5C12.8807 13 14 11.8807 14 10.5C14 9.11929 12.8807 8 11.5 8H9V7H11.5C12.8807 7 14 5.88071 14 4.5C14 3.11929 12.8807 2 11.5 2Z" fill="black"/>
</svg>

<svg viewBox="0 0 15 15" xmlns="http://www.w3.org/2000/svg"><path fill-rule="evenodd" d="M1.5 2H0V1h1.5C5.08 1 8 3.91 8 7.5 8 11.08 5.08 14 1.5 14H0v-1h1.5C4.53 13 7 10.53 7 7.5 7 4.46 4.53 2 1.5 2Zm10 0H7V1h4.5C13.43 1 15 2.56 15 4.5c0 1.27-.68 2.38-1.7 3 1.01.61 1.69 1.72 1.69 3 0 1.93-1.57 3.5-3.5 3.5h-4.5v-1h4.5c1.38 0 2.5-1.12 2.5-2.5 0-1.39-1.12-2.5-2.5-2.5h-2.5V7h2.5c1.38 0 2.5-1.12 2.5-2.5 0-1.39-1.12-2.5-2.5-2.5Z"/></svg>
